assets/chromium/original.svg

<svg viewBox="0 0 511.985 511.985" xmlns="http://www.w3.org/2000/svg" xmlns:xlink="http://www.w3.org/1999/xlink"><linearGradient id="a" gradientTransform="matrix(231.62575 0 0 231.62472 111.11 159.994)" gradientUnits="userSpaceOnUse" x1=".465" x2=".557" y1="-.674" y2=".811"><stop offset="0" stop-color="#1972e7"/><stop offset="1" stop-color="#1969d5"/></linearGradient><linearGradient id="b" gradientTransform="matrix(3.77942 0 0 3.7794 .002 .004)" gradientUnits="userSpaceOnUse" x1="101.744" x2="101.599" y1="33.726" y2="135.466"><stop offset="0" stop-color="#afccfb"/><stop offset="1" stop-color="#8bb5f8"/></linearGradient><linearGradient id="c" gradientTransform="matrix(94.931815 164.42672683 -164.42709057 94.932025 97.555491 173.608932)" gradientUnits="userSpaceOnUse" x1=".018" x2="1.77" y1="-.512" y2=".499"><stop offset="0" stop-color="#659cf6"/><stop offset="1" stop-color="#4285f4"/></linearGradient><linearGradient id="d" gradientTransform="matrix(3.77942 0 0 3.7794 .002 .004)" gradientUnits="userSpaceOnUse" x1="67.452" x2="67.733" y1="40.321" y2="95.25"><stop offset="0" stop-color="#3680f0"/><stop offset="1" stop-color="#2678ec"/></linearGradient><path d="m255.993 255.994 110.85 63.997-110.85 191.994c141.38 0 255.992-114.61 255.992-255.99 0-46.642-12.536-90.332-34.331-127.998h-221.664z" fill="url(#b)"/><path d="m255.99 0c-94.75 0-177.412 51.513-221.677 128.027l110.827 191.964 110.85-63.997v-127.997h221.664c-44.272-76.495-126.925-127.997-221.664-127.997" fill="url(#a)"/><path d="m.002 255.994c0 141.38 114.607 255.99 255.991 255.99l110.85-191.993-110.85-63.997-110.85 63.997-110.828-191.964c-21.785 37.655-34.315 81.33-34.315 127.964" fill="url(#c)"/><path d="m383.99 255.994c0 70.69-57.306 127.997-127.997 127.997-70.69 0-127.998-57.307-127.998-127.997s57.308-127.997 127.998-127.997 127.998 57.307 127.998 127.997" fill="#fff"/><path d="m359.992 255.994c0 57.436-46.563 103.998-103.999 103.998s-103.998-46.562-103.998-103.998c0-57.435 46.562-103.998 103.998-103.998s103.999 46.563 103.999 103.998" fill="url(#d)"/></svg>

<svg xmlns="http://www.w3.org/2000/svg" viewBox="0 0 511.985 511.985"><linearGradient id="b" x1=".465" x2=".557" y1="-.674" y2=".811" gradientTransform="matrix(231.62575 0 0 231.62472 111.11 159.994)" gradientUnits="userSpaceOnUse"><stop offset="0" stop-color="#1972e7"/><stop offset="1" stop-color="#1969d5"/></linearGradient><linearGradient id="a" x1="101.744" x2="101.599" y1="33.726" y2="135.466" gradientTransform="matrix(3.77942 0 0 3.7794 .002 .004)" gradientUnits="userSpaceOnUse"><stop offset="0" stop-color="#afccfb"/><stop offset="1" stop-color="#8bb5f8"/></linearGradient><linearGradient id="d" x1=".018" x2="1.77" y1="-.512" y2=".499" gradientTransform="rotate(60 -101.572 171.29)scale(189.86363 189.86405)" gradientUnits="userSpaceOnUse"><stop offset="0" stop-color="#659cf6"/><stop offset="1" stop-color="#4285f4"/></linearGradient><linearGradient id="e" x1="67.452" x2="67.733" y1="40.321" y2="95.25" gradientTransform="matrix(3.77942 0 0 3.7794 .002 .004)" gradientUnits="userSpaceOnUse"><stop offset="0" stop-color="#3680f0"/><stop offset="1" stop-color="#2678ec"/></linearGradient><path fill="url(#a)" d="m255.993 255.994 110.85 63.997-110.85 191.994c141.38 0 255.992-114.61 255.992-255.99 0-46.642-12.536-90.332-34.331-127.998H255.99z"/><path fill="url(#b)" d="M255.99 0C161.24 0 78.578 51.513 34.313 128.027L145.14 319.991l110.85-63.997V127.997h221.664C433.382 51.502 350.729 0 255.99 0"/><path fill="url(#d)" d="M.002 255.994c0 141.38 114.607 255.99 255.991 255.99l110.85-191.993-110.85-63.997-110.85 63.997L34.315 128.027C12.53 165.682 0 209.357 0 255.991"/><path fill="#fff" d="M383.99 255.994c0 70.69-57.306 127.997-127.997 127.997-70.69 0-127.998-57.307-127.998-127.997s57.308-127.997 127.998-127.997 127.998 57.307 127.998 127.997"/><path fill="url(#e)" d="M359.992 255.994c0 57.436-46.563 103.998-103.999 103.998S151.995 313.43 151.995 255.994c0-57.435 46.562-103.998 103.998-103.998s103.999 46.563 103.999 103.998"/></svg>
